assets/web/icons/video-call-missed-solid.svg

<svg width="24" height="24" viewBox="0 0 24 24" fill="none" xmlns="http://www.w3.org/2000/svg">
<path d="M2 8C2 5.79086 3.79086 4 6 4H16C17.1046 4 18 4.89543 18 6V10.2857L21.3492 7.41496C21.9979 6.85896 23 7.31987 23 8.17422V15.8258C23 16.6801 21.9979 17.141 21.3492 16.585L18 13.7143V18C18 19.1046 17.1046 20 16 20H6C3.79086 20 2 18.2091 2 16V8ZM10.7 13.15L8.5 11H9C9.28333 11 9.52083 10.9042 9.7125 10.7125C9.90417 10.5208 10 10.2833 10 10C10 9.71667 9.90417 9.47917 9.7125 9.2875C9.52083 9.09583 9.28333 9 9 9H6C5.71667 9 5.47917 9.09583 5.2875 9.2875C5.09583 9.47917 5 9.71667 5 10V13C5 13.2833 5.09583 13.5208 5.2875 13.7125C5.47917 13.9042 5.71667 14 6 14C6.28333 14 6.52083 13.9042 6.7125 13.7125C6.90417 13.5208 7 13.2833 7 13V12.3L10 15.3C10.0833 15.3833 10.1875 15.45 10.3125 15.5C10.4375 15.55 10.5667 15.575 10.7 15.575C10.8333 15.575 10.9625 15.55 11.0875 15.5C11.2125 15.45 11.3167 15.375 11.4 15.275L14.525 12.125C14.7083 11.9417 14.8 11.7167 14.8 11.45C14.8 11.1833 14.7 10.95 14.5 10.75C14.3167 10.5667 14.0833 10.475 13.8 10.475C13.5167 10.475 13.2833 10.5667 13.1 10.75L10.7 13.15Z" fill="currentColor"/>
</svg>

<svg xmlns="http://www.w3.org/2000/svg" width="24" height="24" fill="currentColor" viewBox="0 0 24 24">
  <path d="M2 8a4 4 0 0 1 4-4h10a2 2 0 0 1 2 2v4.286l3.35-2.871a1 1 0 0 1 1.65.76v7.65a1 1 0 0 1-1.65.76L18 13.715V18a2 2 0 0 1-2 2H6a4 4 0 0 1-4-4V8Zm8.7 5.15L8.5 11H9c.283 0 .52-.096.713-.287A.968.968 0 0 0 10 10a.968.968 0 0 0-.287-.713A.968.968 0 0 0 9 9H6a.968.968 0 0 0-.713.287A.968.968 0 0 0 5 10v3c0 .283.096.52.287.713.192.191.43.287.713.287s.52-.096.713-.287A.968.968 0 0 0 7 13v-.7l3 3a1.034 1.034 0 0 0 1.088.2.773.773 0 0 0 .312-.225l3.125-3.15a.918.918 0 0 0 .275-.675c0-.267-.1-.5-.3-.7a.948.948 0 0 0-.7-.275.948.948 0 0 0-.7.275l-2.4 2.4Z"/>
</svg>
